X: 628
T: Guanggunr kuqi
L: 1/8
M: 2/4
K: F
d> d d d [I:setbarnb 1]| 
d f/ A/c2 | 
d d/ c/ A c | 
d c/ A/G2 | 
G G/ F/ G A | 
c Ac2 | 
G/ A/ G/ F/ D C/ D/ | 
F4 | 
G G/ F/ G A | 
G2(3G F D | 
G G/ F/ D F/ D/ | 
C4 |]

@@@ Tune index: 9502
